X: 321
T: LONELY I'LL BE LOVE WITHOUT YOU
T: Gan tusa beidh me uigneach a ghradh
B: O'Neill's 321
M: 6/8
L: 1/8
Z: 1999 by John Chambers <jc@trillian.mit.edu>
N: "With feeling"
N: "Collected by F.O'Neill"
K:G
D \
| (GAB) (ABd) | e3 d2B | (GAB) (~AGF) | E3- E2D |
|  GAB   ABd  | e3 d2G |  Bcd    cAF  | G3- G2 ||
|| (B/c/) \
| (dBd) (gfg) | e3 A2B | (cde) (dBd) | G3 F2(F/E/) |
|  DGB   ABd  | e3 d2G |  Bcd   cAF  | G3- G2 ||


